X:290
T:Peter Street
Z: id:dc-reel-270
M:C
L:1/8
K:A Major
A2cA eAcA|eAaA gAfA|e2cA eAcA|BEcE dEBE|!
A2cA eAcA|eAaA gAfA|efec eaec|BABc A4:|!
E2GE BEGE|BEdE cEBE|A2cA eAcA|eAaA gAfA|!
efec agaf|efec agaf|efag fedc|[1 BAGF EFGE:|[2 BABc A4|]!

